src/icons/svg/VisScatter.svg

<svg width="24" height="24" viewBox="0 0 24 24" fill="none" xmlns="http://www.w3.org/2000/svg">
<path d="M14.298 7.404C14.298 8.673 13.269 9.702 12 9.702C10.731 9.702 9.70203 8.673 9.70203 7.404C9.70203 6.135 10.731 5.106 12 5.106C13.269 5.106 14.298 6.135 14.298 7.404Z" fill="#1C2125"/>
<path d="M21.191 16.213C21.191 18.54 19.305 20.426 16.978 20.426C14.651 20.426 12.765 18.54 12.765 16.213C12.765 13.886 14.651 12 16.978 12C19.305 12 21.191 13.886 21.191 16.213Z" fill="#1C2125"/>
<path d="M7.40402 17.745C7.40402 18.379 6.89002 18.894 6.25502 18.894C5.62102 18.894 5.10602 18.38 5.10602 17.745C5.10602 17.111 5.62002 16.596 6.25502 16.596C6.88902 16.596 7.40402 17.11 7.40402 17.745Z" fill="#1C2125"/>
<path d="M6.38302 10.213C6.38302 11.2 5.58302 12 4.59602 12C3.60902 12 2.80902 11.2 2.80902 10.213C2.80902 9.226 3.60902 8.42599 4.59602 8.42599C5.58302 8.42599 6.38302 9.226 6.38302 10.213V10.213Z" fill="#1C2125"/>
<path d="M23.872 23.872H0.127014V0.126999H23.872V23.872ZM0.894014 23.106H23.107V0.892999H0.894014V23.106V23.106Z" fill="#1C2125"/>
</svg>

<!-- Generated by IcoMoon.io -->
<svg version="1.1" xmlns="http://www.w3.org/2000/svg" width="24" height="24" viewBox="0 0 24 24">
<title>vis-scatter</title>
<path fill="#444" d="M14.298 7.404c0 1.269-1.029 2.298-2.298 2.298v0c-1.269 0-2.298-1.029-2.298-2.298v0c0-1.269 1.029-2.298 2.298-2.298v0c1.269 0 2.298 1.029 2.298 2.298v0 0z"></path>
<path fill="#444" d="M21.191 16.213c0 2.327-1.886 4.213-4.213 4.213v0c-2.327 0-4.213-1.886-4.213-4.213v0c0-2.327 1.886-4.213 4.213-4.213v0c2.327 0 4.213 1.886 4.213 4.213v0 0z"></path>
<path fill="#444" d="M7.404 17.745c0 0.634-0.514 1.149-1.149 1.149v0c-0.634 0-1.149-0.514-1.149-1.149v0c0-0.634 0.514-1.149 1.149-1.149v0c0.634 0 1.149 0.514 1.149 1.149v0 0z"></path>
<path fill="#444" d="M6.383 10.213c0 0.987-0.8 1.787-1.787 1.787v0c-0.987 0-1.787-0.8-1.787-1.787v0c0-0.987 0.8-1.787 1.787-1.787v0c0.987 0 1.787 0.8 1.787 1.787v0 0z"></path>
<path fill="#444" d="M23.872 23.872h-23.745v-23.745h23.745v23.745zM0.894 23.106h22.213v-22.213h-22.213v22.213z"></path>
</svg>
